X:08051
T: Jackson's Bottle of Claret
B: RSCDS 8-5
R: jig
Z: John Chambers <jc:trillian.mit.edu>
M: 6/8
L: 1/8
%--------------------
K: G
   D \
| "G"G2G "D7"AGA | "G"B2g gdB | "Am"c2{B}A "Em"BGE | "C"G>AG "D7"GED \
| "G"G2G "D7"AGA | "G"B2g gdB | "Am"c2{B}A "Em"BGE | "C"G>AG "G"G2 :|
|: f \
| "Em"gfg     efg | "Bm"fdB B2f | "Em"gfg "A7"efg | "D"afd    d2f \
| "Em"gfe "D7"agf | "Em"gfe edB | "Am"cBA "Em"BGE | "C"G>AG "G"G2 :|
